X: 1
P: Archie Menzies
C: from Sandy MacIntyre, arr. T. Traub 9-21-95
R: Reel
K: F
M: 4/4
L: 1/8
C2|F2 CF AFCF|Acde fcAF|"Gm"G2 DG BGDG|Bdef "C"gdBG|"F"F2 CF AFCF|Acde fcAc|
"Bb"BdGB "F"AcFA|"C"GECE "F"F2 fe|| "F"f2 cf afef|cfag fed^f|"Gm"g2 dg bg^fg|
"Gm"dgba "C"gfed|"F"cfef afef|cfag fedc|"Bb"BdGB "F"AcFA|"C"GECE "F"F2 |]
